X:1
T:Joy to the World! The Lord Is Come
T:Text: Isaac Watts, 1719; based on Psalm 98 Tune: Lowell Mason, 1848
T:CM with repeats ANTIOCH www.hymnary.org/text/joy_to_the_world_the_lord_is_come
T:This hymn is in the public domain. You may freely use this score for personal and congregational worship. If you reproduce the score, please credit Hymnary.org as the source. 
T:Joy to the World! The Lord Is Come
T:This hymn is in the public domain. You may freely use this score for personal and congregational worship. If you reproduce the score, please credit Hymnary.org as the source. 
T:This hymn is in the public domain. You may freely use this score for personal and congregational worship. If you reproduce the score, please credit Hymnary.org as the source. 
T:This hymn is in the public domain. You may freely use this score for personal and congregational worship. If you reproduce the score, please credit Hymnary.org as the source. 
T:This hymn is in the public domain. You may freely use this score for personal and congregational worship. If you reproduce the score, please credit Hymnary.org as the source. 
Z:This hymn is in the public domain. You may freely use this score for personal and congregational worship. If you reproduce the score, please credit Hymnary.org as the source.
%%score ( 1 2 ) ( 3 4 )
L:1/8
M:2/4
K:D
V:1 treble nm="SOPRANO ALTO" snm="S. A."
V:2 treble 
V:3 bass nm="TENOR BASS" snm="T. B."
V:4 bass 
V:1
"^D""^1""^2""^3""^4" d2 c>B | A3 G | F2"^A7" E2 |"^D" D3 A |"^G" B3 B |"^A" c3 c |"^D" d3 d | %7
w: Joy to the|world! the|Lord is|come: let|earth re-|ceive her|King. Let|
 dc BA | A>G Fd | dc BA | A>G FF | FF FF/G/ | A3 G/F/ |"^A" EE EE/F/ | G3 F/E/ |"^D" (D d2) B | %16
w: ev- * ery *|heart * * pre-|pare * him *|room, * * and|heaven and na- ture *|sing, and *|heaven and na- ture *|sing, and *|heaven, _ and|
 A>G FG |"^D/A" F2"^A7" E2 |"^D" D4 |"^D""^1""^2""^3""^4" d2 c>B | A3 G | F2"^A7" E2 |"^D" D3 A | %23
w: heaven * * and|na- ture|sing.|Joy to the|earth! the|Sav- ior|reigns Let|
"^G" B3 B |"^A" c3 c |"^D" d3 d | dc BA | A>G Fd | dc BA | A>G FF | FF FF/G/ | A3 G/F/ | %32
w: all their|songs em-|ploy while|fields * and *|floods, * * rocks,|hills * and *|plains * * re-|peat the sound- ing *|joy, re- *|
"^A" EE EE/F/ | G3 F/E/ |"^D" (D d2) B | A>G FG |"^D/A" F2"^A7" E2 |"^D" D4 | %38
w: peat the sound- ing *|joy, re- *|peat, * re-|peat * * the|sound- ing|joy.|
"^D""^1""^2""^3""^4" d2 c>B | A3 G | F2"^A7" E2 |"^D" D3 A |"^G" B3 B |"^A" c3 c |"^D" d3 d | %45
w: No more let|sin and|so- rrow|grow Nor|thorns in-|fest the-|ground; He|
 dc BA | A>G Fd | dc BA | A>G FF | FF FF/G/ | A3 G/F/ |"^A" EE EE/F/ | G3 F/E/ |"^D" (D d2) B | %54
w: comes * to *|make * * his|ble- * ssings *|flow * * far|as the curse is *|found far *|as the curse is *|found far *|as, * far|
 A>G FG |"^D/A" F2"^A7" E2 |"^D" D4 |"^D""^1""^2""^3""^4" d2 c>B | A3 G | F2"^A7" E2 |"^D" D3 A | %61
w: as * * the|curse is|found|He rules the|world with|truth and|grace And|
"^G" B3 B |"^A" c3 c |"^D" d3 d | dc BA | A>G Fd | dc BA | A>G FF | FF FF/G/ | A3 G/F/ | %70
w: makes the-|na- tions|prove the|glo- * ries *|of * * his|right- * eous- *|ness * * and|won- ders of His *|love and *|
"^A" EE EE/F/ | G3 F/E/ |"^D" (D d2) B | A>G FG |"^D/A" F2"^A7" E2 |"^D" D4 |] %76
w: won- ders of His *|love and *|won- * ders|won- * * ders|of His|love|
V:2
 F2 A>G | F3 E | D2 C2 | D3 D | G3 G | E3 E | F3 F | FA GF | F>E DF | FA GF | F>E DD | DD DD/E/ | %12
 F3 E/D/ | CC CC/D/ | E3 D/C/ | (D F2) G | F>E DE | D2 C2 | D4 | F2 A>G | F3 E | D2 C2 | D3 D | %23
 G3 G | E3 E | F3 F | FA GF | F>E DF | FA GF | F>E DD | DD DD/E/ | F3 E/D/ | CC CC/D/ | E3 D/C/ | %34
 (D F2) G | F>E DE | D2 C2 | D4 | F2 A>G | F3 E | D2 C2 | D3 D | G3 G | E3 E | F3 F | FA GF | %46
 F>E DF | FA GF | F>E DD | DD DD/E/ | F3 E/D/ | CC CC/D/ | E3 D/C/ | (D F2) G | F>E DE | D2 C2 | %56
 D4 | F2 A>G | F3 E | D2 C2 | D3 D | G3 G | E3 E | F3 F | FA GF | F>E DF | FA GF | F>E DD | %68
 DD DD/E/ | F3 E/D/ | CC CC/D/ | E3 D/C/ | (D F2) G | F>E DE | D2 C2 | D4 |] %76
V:3
 D2 D>D | D3 B, | A,3 G, | F,3 D | D3 D | A,3 A, | A,3 A, | A,2 D2 | D3 A, | A,2 D2 | D3 z | %11
w: |||||||||||
 z2 z A, | A,A, A,A, | A,4- | A,3 A,/G,/ | (F, A,2) D | D3 B, | A,2 A,G, | F,4 | D2 D>D | D3 B, | %21
w: and|heaven and na- ture|sing,||||||||
 A,3 G, | F,3 D | D3 D | A,3 A, | A,3 A, | A,2 D2 | D3 A, | A,2 D2 | D3 z | z2 z A, | A,A, A,A, | %32
w: |||||||||||
 A,4 | A,3 A,/G,/ | (F, A,2) D | D3 B, | A,2 A,G, | F,4 | D2 D>D | D3 B, | A,3 G, | F,3 D | D3 D | %43
w: |||||||||||
 A,3 A, | A,3 A, | A,2 D2 | D3 A, | A,2 D2 | D3 z | z2 z A, | A,A, A,A, | A,4 | A,3 A,/G,/ | %53
w: ||||||||||
 (F, A,2) D | D3 B, | A,2 A,G, | F,4 | D2 D>D | D3 B, | A,3 G, | F,3 D | D3 D | A,3 A, | A,3 A, | %64
w: |||||||||||
 A,2 D2 | D3 A, | A,2 D2 | D3 z | z2 z A, | A,A, A,A, | A,4 | A,3 A,/G,/ | (F, A,2) D | D3 B, | %74
w: ||||||||||
 A,2 A,G, | F,4 |] %76
w: ||
V:4
 D,2 D,>D, | D,3 G,, | A,,2 A,,2 | D,3 F, | G,3 G, | A,3 A, | D,3 D, | D,2 D,2 | D,3 D, | D,2 D,2 | %10
w: ||||||||||
 D,3 x | x3 D, | D,D, D,D, | A,3 A,, | A,,A,, A,,A,, | D,3 D, | D,3 G,, | A,,2 A,,2 | D,4 | %19
w: |||* and|heaven and na- ture|sing, *||||
 D,2 D,>D, | D,3 G,, | A,,2 A,,2 | D,3 F, | G,3 G, | A,3 A, | D,3 D, | D,2 D,2 | D,3 D, | D,2 D,2 | %29
w: ||||||||||
 D,3 x | x3 D, | D,D, D,D, | A,3 A,, | A,,A,, A,,A,, | D,3 D, | D,3 G,, | A,,2 A,,2 | D,4 | %38
w: |||||||||
 D,2 D,>D, | D,3 G,, | A,,2 A,,2 | D,3 F, | G,3 G, | A,3 A, | D,3 D, | D,2 D,2 | D,3 D, | D,2 D,2 | %48
w: ||||||||||
 D,3 x | x3 D, | D,D, D,D, | A,3 A,, | A,,A,, A,,A,, | D,3 D, | D,3 G,, | A,,2 A,,2 | D,4 | %57
w: |||||||||
 D,2 D,>D, | D,3 G,, | A,,2 A,,2 | D,3 F, | G,3 G, | A,3 A, | D,3 D, | D,2 D,2 | D,3 D, | D,2 D,2 | %67
w: ||||||||||
 D,3 x | x3 D, | D,D, D,D, | A,3 A,, | A,,A,, A,,A,, | D,3 D, | D,3 G,, | A,,2 A,,2 | D,4 |] %76
w: |||||||||

